X:1
T:The Well-Tempered Clavier Book II - V
T:BWV 874    (A = 415 Hz)
T:J. S. Bach
%%score { ( 1 4 5 6 ) | ( 2 3 ) }
L:1/8
M:2/2
K:D
V:1 treble 
V:4 treble 
V:5 treble 
V:6 treble 
V:2 bass 
V:3 bass 
V:1
"^Praeludium" (6:4:5z D/E/F/G/(3AFA (3dAd (3fdf | a2 a2 aggf | f2 z2 z4 | z2 f2 feed | %4
 d z z2 (6:4:5z E/F/^G/A/(3BGB | e z z2 (6:4:5z D/E/F/^G/(3AFA | %6
 (3:2:2d2 F (3:2:2d2 d d2 (6:4:5z e/d/c/B/ | %7
 (6:4:5cA/B/c/d/(6:4:5ed/c/B/A/ (6:4:5dB/c/d/e/(6:4:5fe/d/c/B/ | e4- e2 d2- | d2 d2 ^g2 b2- | %10
 (6:4:5ba/^g/f/e/(3^dfd (3AdA (3FAF | (3^GFE (3:2:2A2 d c2 (12:8:6(1:1:4c/4B/4c/4B/4AB | %12
 (6:4:5Ac/B/A/^G/(6:4:5FA/G/F/E/ (3^DFB B2- | (6:4:5BA/^G/F/E/(6:4:5DF/E/D/C/ (3B,D=G G2- | %14
 (6:4:5GF/E/D/C/(6:4:5B,D/C/B,/A,/ (3G,B,E (3CEA | (3:2:2D2 B (3EA^G A4 | %16
 (6:4:5z D/E/F/G/(3AFA (3dAd (3fdf | a2 a2 aggf | f2 z2 z4 | z2 f2 feed | %20
 d z z2 (6:4:5z E/F/^G/A/(3BGB | e z z2 (6:4:5z D/E/F/^G/(3AFA | %22
 (3:2:2d2 F (3:2:2d2 d d2 (6:4:5z e/d/c/B/ | %23
 (6:4:5cA/B/c/d/(6:4:5ed/c/B/A/ (6:4:5dB/c/d/e/(6:4:5fe/d/c/B/ | e4- e2 d2- | d2 d2 ^g2 b2- | %26
 (6:4:5ba/^g/f/e/(3^dfd (3AdA (3FAF | (3^GFE (3:2:2A2 d c2 (12:8:6(1:1:4c/4B/4c/4B/4AB | %28
 (6:4:5Ac/B/A/^G/(6:4:5FA/G/F/E/ (3^DFB B2- | (6:4:5BA/^G/F/E/(6:4:5DF/E/D/C/ (3B,D=G G2- | %30
 (6:4:5GF/E/D/C/(6:4:5B,D/C/B,/A,/ (3G,B,E (3CEA | (3:2:2D2 B (3EA^G A4 | %32
 (6:4:5z e/d/c/B/(3AcA (3EAE (3CEC | (6:4:5z A/B/c/d/(3ece (6:4:6a/e/f/^g/a/g/ (6:4:6a/e/f/g/a/g/ | %34
 (6:4:5a^g/f/e/d/ (6:4:6c/d/e/d/c/B/ (6:4:6B/4A/4B/4A/4B/4A/4(6:4:6B/4A/4B/4A/4B/4A/4 (6:4:6B/4A/4B/4A/4B/4A/4(6:4:6B/4A/4B/4A/4B/4A/4 | %35
 (12:8:7(1:1:2B/4A/4B/A/^G/A/E/ (6:4:6C/D/E/D/C/B,/ (6:4:6B,/4A,/4B,/4A,/4B,/4A,/4(6:4:6B,/4A,/4B,/4A,/4B,/4A,/4 (6:4:6B,/4A,/4B,/4A,/4B,/4A,/4(6:4:6B,/4A,/4B,/4A,/4B,/4A,/4 | %36
 (6:4:6B,/4A,/4B,/4A,/4B,/4A,/4 z z2 (6:4:5z e/d/c/B/(3AeG | F z z2 (6:4:5z a/g/f/e/(3da=c | %38
 B4- (6:4:5Bc/B/^A/B/ c2- | (6:4:5cd/c/B/c/ d2- (6:4:5de/d/c/d/ e2- | %40
 (6:4:5eg/f/e/^d/(3egd (6:4:5eg/f/e/d/(6:4:5ef/e/d/c/ | ^d z z2 f z z2 | %42
 (6:4:6z/ B/c/^d/e/f/ (6:4:6g/f/e/=d/c/B/ (6:4:6e/d/c/B/A/^G/ (6:4:6c/B/A/=G/F/E/ | %43
 (6:4:6F/A/B/c/d/e/ (6:4:6f/e/d/c/B/A/ (6:4:5^G/B/e/d/e- (6:4:5e/^A/c/d/e- | %44
 (6:4:6e/F/^G/^A/B/c/ (6:4:6d/c/B/=A/=G/F/ (6:4:6B/A/G/F/E/D/ (6:4:6G/F/E/D/C/D/ | %45
 (6:4:5^A,g/f/e/d/(3cec (3^AcA (3EAE | D z B2 d2 ^e2 | %47
 (3:2:2f2 e (3:2:2d2 g d2 (12:8:6(1:1:4d/4c/4d/4c/4Bc | (6:4:5Bd/c/B/A/(6:4:5GB/A/G/F/ (3EG=c c2- | %49
 (3:2:2c2 B B2- (3:2:2B2 A A2- | (3:2:2A2 G G2- (3:2:2G2 F- (3FF=c | B2- (3Bcd- (3dBc e2- | %52
 (3ecd g2- (3gfe f2- | (3fed (3ecd (6:4:6d/4c/4d/4c/4d/4c/4(6:4:6d/4c/4d/4c/4d/4c/4 z2 | %54
 _B2 A2 G2 =F2- | (6:4:6F/E/D/C/D/=F/ (6:4:6B/F/E/D/C/B,/ (3C z z z2 | z8 | z2 f2 feed | %58
 (6:4:5dD/E/F/G/(3AFA (3=cAc (3fcf | a2 =c2 cBBA | (6:4:5Bb/a/g/f/(3ege c z z2 | %61
 (6:4:5z a/g/f/e/(3dfd B z z2 | (3z z B (3:2:2B2 B A2 z2 | z2 d2 B2 e2- | %64
 e2 (3:2:2d2 =c (3:2:2B2 A G2- | G2 G2 c2 e2- | (6:4:5ed/c/B/A/(3^GBG (3EGE (3B,DB, | %67
 (3CB,A, (3:2:2D2 G- (6:4:4GF/E/F (3:2:2E2 A | (6:4:6F/A/B/c/d/e/ (6:4:6f/e/d/c/B/A/ (3^GBe e2- | %69
 e2 (6:4:6d/c/B/=A/=G/F/ (3EG=c c2- | c2 (6:4:6B/A/G/F/E/D/ (3CEA (3FAd | (3:2:2G2 e (3Adc d4 | %72
 (6:4:5z e/d/c/B/(3AcA (3EAE (3CEC | (6:4:5z A/B/c/d/(3ece (6:4:6a/e/f/^g/a/g/ (6:4:6a/e/f/g/a/g/ | %74
 (6:4:5a^g/f/e/d/ (6:4:6c/d/e/d/c/B/ (6:4:6B/4A/4B/4A/4B/4A/4(6:4:6B/4A/4B/4A/4B/4A/4 (6:4:6B/4A/4B/4A/4B/4A/4(6:4:6B/4A/4B/4A/4B/4A/4 | %75
 (12:8:7(1:1:2B/4A/4B/A/^G/A/E/ (6:4:6C/D/E/D/C/B,/ (6:4:6B,/4A,/4B,/4A,/4B,/4A,/4(6:4:6B,/4A,/4B,/4A,/4B,/4A,/4 (6:4:6B,/4A,/4B,/4A,/4B,/4A,/4(6:4:6B,/4A,/4B,/4A,/4B,/4A,/4 | %76
 (6:4:6B,/4A,/4B,/4A,/4B,/4A,/4 z z2 (6:4:5z e/d/c/B/(3AeG | F z z2 (6:4:5z a/g/f/e/(3da=c | %78
 B4- (6:4:5Bc/B/^A/B/ c2- | (6:4:5cd/c/B/c/ d2- (6:4:5de/d/c/d/ e2- | %80
 (6:4:5eg/f/e/^d/(3egd (6:4:5eg/f/e/d/(6:4:5ef/e/d/c/ | ^d z z2 f z z2 | %82
 (6:4:6z/ B/c/^d/e/f/ (6:4:6g/f/e/=d/c/B/ (6:4:6e/d/c/B/A/^G/ (6:4:6c/B/A/=G/F/E/ | %83
 (6:4:6F/A/B/c/d/e/ (6:4:6f/e/d/c/B/A/ (6:4:5^G/B/e/d/e- (6:4:5e/^A/c/d/e- | %84
 (6:4:6e/F/^G/^A/B/c/ (6:4:6d/c/B/=A/=G/F/ (6:4:6B/A/G/F/E/D/ (6:4:6G/F/E/D/C/D/ | %85
 (6:4:5^A,g/f/e/d/(3cec (3^AcA (3EAE | D z B2 d2 ^e2 | %87
 (3:2:2f2 e (3:2:2d2 g d2 (12:8:6(1:1:4d/4c/4d/4c/4Bc | (6:4:5Bd/c/B/A/(6:4:5GB/A/G/F/ (3EG=c c2- | %89
 (3:2:2c2 B B2- (3:2:2B2 A A2- | (3:2:2A2 G G2- (3:2:2G2 F- (3FF=c | B2- (3Bcd- (3dBc e2- | %92
 (3ecd g2- (3gfe f2- | (3fed (3ecd (6:4:6d/4c/4d/4c/4d/4c/4(6:4:6d/4c/4d/4c/4d/4c/4 z2 | %94
 _B2 A2 G2 =F2- | (6:4:6F/E/D/C/D/=F/ (6:4:6B/F/E/D/C/B,/ (3C z z z2 | z8 | z2 f2 feed | %98
 (6:4:5dD/E/F/G/(3AFA (3=cAc (3fcf | a2 =c2 cBBA | (6:4:5Bb/a/g/f/(3ege c z z2 | %101
 (6:4:5z a/g/f/e/(3dfd B z z2 | (3z z B (3:2:2B2 B A2 z2 | z2 d2 B2 e2- | %104
 e2 (3:2:2d2 =c (3:2:2B2 A G2- | G2 G2 c2 e2- | (6:4:5ed/c/B/A/(3^GBG (3EGE (3B,DB, | %107
 (3CB,A, (3:2:2D2 G- (6:4:4GF/E/F (3:2:2E2 A | (6:4:6F/A/B/c/d/e/ (6:4:6f/e/d/c/B/A/ (3^GBe e2- | %109
 e2 (6:4:6d/c/B/=A/=G/F/ (3EG=c c2- | c2 (6:4:6B/A/G/F/E/D/ (3CEA (3FAd | %111
 (3:2:2G2 e (3Adc !fermata!d4 | z8 |[M:2/2]"^Fuga" z8 | z8 | z8 | z8 | z ddd G2 B2- | BEAG F4 | %119
 ^G4 A2 z E | AG F2- F2 ED | C2 D2- DB/A/BD | C2 z2 z EAG | F4 z BBB | E2 G2- GCFE | DFBA ^GBed | %126
 c2 z2 z ddd | G2 B2- BEAG | F2 z A d=cBd | g2 fe agfe | d2 cB edcB | AcBA ^GE A2- | A2- A^G A4- | %133
 AFBA G2 z2 | z fff B2 d2- | d^GcB ^A2 Bc | d4- d2 c2- | c4- cB/A/^GF | ^E4- EC F2- | %139
 F2 =F2 ^F2 z a | aa d2 f3 B | ed c2 z Ad=c | B2 z B ed =c2- | c4 B4- | B A2 G- GF/E/ F2 | %145
 G z z2 z ggg | c2 e2- eAd=c | B4- BEAG | F2 c2- cFBA | G4- G3 E | AGFA dcBd | g4- geag | %152
 fg a2- adgf | e4- e2 d=c | B4- BEAG | F2 E2 F^G A2- | A2 ^G2 Aaaa | d2 f2- fBed | c4 =c4- | %159
 cAd=c B4- | B2 A4- A2- | A2 G2- GEAG | F2 E2 !fermata!D4 |] %163
V:2
 D,2 z2 z4 | z2 D2 A2 A,2 | D2 z2 z4 | z2 D,2 A,2 A,,2 | %4
 (3:2:2D,2 D,, (3:2:2D,2 D, D,2 (6:4:5z E,/D,/C,/B,,/ | %5
 (3:2:2C,2 C,, (3:2:2C,2 C, C,2 (6:4:5z D,/=C,/B,,/A,,/ | %6
 (6:4:5B,,F,/E,/D,/C,/(3B,,D,B,, (3^G,,B,,G,, (3E,,G,,E,, | %7
 (3A,,C,A,, (3F,,A,,F,, (3B,,D,B,, (3^G,,B,,G,, | C, z z2 D, z z2 | %9
 (3:2:2E,2 E,, (3:2:2E,,2 E,, E,,2- (6:4:4E,,3/2B,,/C,/D,/ | (3:2:2E,2 E,, (3:2:2E,,2 E,, E,,2 z2 | %11
 (6:4:5z z/ C,/D,/E,/(3F,E,D, E,2 E,,2 | %12
 (3:2:2A,,2 E, (12:8:4(1:1:3A,/4G,/4A,/- A,2- (6:4:5A,B,/A,/^G,/F,/(6:4:5^E,F,/E,/D,/C,/ | %13
 (3:2:2F,2 F,, (12:8:4(1:1:3F,/4E,/4F,/- F,2- (6:4:5F,=G,/F,/E,/D,/(6:4:5C,D,/C,/B,,/A,,/ | %14
 (3:2:2D,2 D,, (12:8:4(1:1:3D,/4C,/4D,/- D,2- (6:4:5D,E,/D,/C,/B,,/(6:4:5A,,B,,/C,/D,/E,/ | %15
 (3F,E,D, (3:2:2E,2 E,, (3A,,C,E, A,2 | D,2 z2 z4 | z2 D2 A2 A,2 | D2 z2 z4 | z2 D,2 A,2 A,,2 | %20
 (3:2:2D,2 D,, (3:2:2D,2 D, D,2 (6:4:5z E,/D,/C,/B,,/ | %21
 (3:2:2C,2 C,, (3:2:2C,2 C, C,2 (6:4:5z D,/=C,/B,,/A,,/ | %22
 (6:4:5B,,F,/E,/D,/C,/(3B,,D,B,, (3^G,,B,,G,, (3E,,G,,E,, | %23
 (3A,,C,A,, (3F,,A,,F,, (3B,,D,B,, (3^G,,B,,G,, | C, z z2 D, z z2 | %25
 (3:2:2E,2 E,, (3:2:2E,,2 E,, E,,2- (6:4:4E,,3/2B,,/C,/D,/ | (3:2:2E,2 E,, (3:2:2E,,2 E,, E,,2 z2 | %27
 (6:4:5z z/ C,/D,/E,/(3F,E,D, E,2 E,,2 | %28
 (3:2:2A,,2 E, (12:8:4(1:1:3A,/4G,/4A,/- A,2- (6:4:5A,B,/A,/^G,/F,/(6:4:5^E,F,/E,/D,/C,/ | %29
 (3:2:2F,2 F,, (12:8:4(1:1:3F,/4E,/4F,/- F,2- (6:4:5F,=G,/F,/E,/D,/(6:4:5C,D,/C,/B,,/A,,/ | %30
 (3:2:2D,2 D,, (12:8:4(1:1:3D,/4C,/4D,/- D,2- (6:4:5D,E,/D,/C,/B,,/(6:4:5A,,B,,/C,/D,/E,/ | %31
 (3F,E,D, (3:2:2E,2 E,, (3A,,C,E, A,2 | A,2 z2 z4 | z2 A,2 A,2 z2 | %34
 (6:4:5z E/D/C/B,/(3A,CA, (3E,A,E, (3C,E,C, | A,,2 [A,,C,]2 [A,,C,]B,,B,,C, | %36
 C, z (3z z A, (6:4:5B,C/B,/A,/B,/(6:4:5B,D/C/B,/C/ | %37
 D z (3z z D, (6:4:5E,F,/E,/D,/F,/(6:4:5E,G,/F,/E,/F,/ | %38
 (6:4:5G,B,/A,/G,/F,/(6:4:5E,G,/F,/E,/D,/ (3C,E,C, (3^A,,C,A,, | %39
 (3D,F,D, (3B,,D,B,, (3E,G,E, (3C,E,C, | (3:2:2F,2 B, (3^A,B,C (3:2:2F,2 B, (3:2:2A,2 B, | %41
 (3:2:2B,,2 E (3^DEF (3:2:2B,2 E (3:2:2D2 E | (6:4:6E,/G,/A,/B,/C/^D/(3EGE (3CEC (3A,CA, | %43
 (6:4:6D,/F,/G,/A,/B,/C/ D2 (3DCB, (6:4:6^A,/C/B,/A,/^G,/F,/ | %44
 (3B,F,D, (6:4:5B,,C,/D,/E,/F,/ (6:4:6G,/A,/B,/A,/G,/F,/ (6:4:6E,/F,/G,/F,/G,/E,/ | %45
 (3:2:2F,2 F,, (3:2:2F,,2 F,, F,,2 (6:4:5z z/ C,/D,/E,/ | (3:2:2F,2 F,, (3:2:2F,,2 F,, F,,2 z2 | %47
 (6:4:5z z/ D,/E,/F,/(3G,F,E, F,2 F,,2 | %48
 (3:2:2B,,2 F, (12:8:4(1:1:3B,/4A,/4B,/- B,2- (6:4:5B,=C/B,/A,/G,/ z2 | %49
 (6:4:6G,/A,/B,/G,/F,/G,/(3C,E,C, (6:4:6F,/G,/A,/F,/E,/F,/(3B,,D,B,, | %50
 (6:4:6E,/F,/G,/E,/D,/E,/(3A,,C,A,, (6:4:6D,/E,/F,/D,/C,/D,/ (6:4:6B,,/=C,/D,/B,,/A,,/B,,/ | %51
 (6:4:6G,,/A,,/B,,/A,,/G,,/F,,/ (6:4:6E,,/F,,/G,,/F,,/E,,/D,,/ A,,2- (6:4:6A,,/B,,/C,/D,/E,/^A,,/ | %52
 B,,2- (6:4:6B,,/A,,/B,,/D,/C,/E,/ D,2- (6:4:6D,/E,/D,/=C,/B,,/A,,/ | %53
 (6:4:6G,,/D,/E,/F,/G,/A,/ _B,2- (6:4:6B,/A,/B,/G,/E,/G,/ (6:4:6A,/G,/A,/=F,/D,/F,/ | %54
 (6:4:6G,/=F,/G,/E,/C,/E,/ (6:4:6F,/E,/F,/D,/B,,/D,/ (6:4:6E,/D,/E,/C,/A,,/C,/ (6:4:6D,/B,,/D,/F,/_B,,/D,/ | %55
 A,,4 A,,2 (6:4:6z/ B,,/A,,/G,,/F,,/E,,/ | D,,2 z2 z4 | z2 D,2 A,2 A,,2 | %58
 D,2 (6:4:5z =C/B,/A,/G,/ (3F,A,F, (3D,F,D, | (3A,,D,A,, (3F,,A,,F,, D,,2 D,2 | %60
 (3:2:2G,,2 D, (12:8:5(1:1:3G,/4F,/4G,/-G,G, G,2 (6:4:5z A,,/G,,/F,,/E,,/ | %61
 (3:2:2F,,2 F, (3:2:2F,2 F, F,2 (6:4:5z G,,/F,,/E,,/D,,/ | %62
 (6:4:5E,,B,/A,/G,/F,/(3E,G,E, (3C,E,C, (3A,,C,A,, | (3D,F,D, (3B,,D,B,, (3E,G,E, (3C,E,C, | %64
 (6:4:5F,D,/E,/F,/G,/(6:4:5A,G,/F,/E,/D,/ (6:4:5G,E,/F,/G,/A,/(6:4:5B,A,/G,/F,/E,/ | %65
 (3:2:2A,2 A,, (3:2:2A,,2 A,, A,,2- A,,(3E,/F,/G,/ | (3:2:2A,2 A,, (3:2:2A,,2 A,, A,,2 z2 | %67
 (6:4:5z z/ F,,/G,,/A,,/(3B,,A,,G,, (3:2:2A,,2 G, (3:2:2A,2 A,, | %68
 (3:2:2D,2 A, D2- (6:4:5DE/D/C/B,/(6:4:5^A,B,/A,/^G,/F,/ | %69
 (3:2:2B,2 B,, B,2- (6:4:5B,=C/B,/A,/G,/(6:4:5F,G,/F,/E,/D,/ | %70
 (3:2:2G,2 G,, G,2- (6:4:5G,A,/G,/F,/E,/(6:4:5D,E,/F,/G,/A,/ | (3B,A,G, (3:2:2A,2 A,, D,,4 | %72
 A,2 z2 z4 | z2 A,2 A,2 z2 | (6:4:5z E/D/C/B,/(3A,CA, (3E,A,E, (3C,E,C, | %75
 A,,2 [A,,C,]2 [A,,C,]B,,B,,C, | C, z (3z z A, (6:4:5B,C/B,/A,/B,/(6:4:5B,D/C/B,/C/ | %77
 D z (3z z D, (6:4:5E,F,/E,/D,/F,/(6:4:5E,G,/F,/E,/F,/ | %78
 (6:4:5G,B,/A,/G,/F,/(6:4:5E,G,/F,/E,/D,/ (3C,E,C, (3^A,,C,A,, | %79
 (3D,F,D, (3B,,D,B,, (3E,G,E, (3C,E,C, | (3:2:2F,2 B, (3^A,B,C (3:2:2F,2 B, (3:2:2A,2 B, | %81
 (3:2:2B,,2 E (3^DEF (3:2:2B,2 E (3:2:2D2 E | (6:4:6E,/G,/A,/B,/C/^D/(3EGE (3CEC (3A,CA, | %83
 (6:4:6D,/F,/G,/A,/B,/C/ D2 (3DCB, (6:4:6^A,/C/B,/A,/^G,/F,/ | %84
 (3B,F,D, (6:4:5B,,C,/D,/E,/F,/ (6:4:6G,/A,/B,/A,/G,/F,/ (6:4:6E,/F,/G,/F,/G,/E,/ | %85
 (3:2:2F,2 F,, (3:2:2F,,2 F,, F,,2 (6:4:5z z/ C,/D,/E,/ | (3:2:2F,2 F,, (3:2:2F,,2 F,, F,,2 z2 | %87
 (6:4:5z z/ D,/E,/F,/(3G,F,E, F,2 F,,2 | %88
 (3:2:2B,,2 F, (12:8:4(1:1:3B,/4A,/4B,/- B,2- (6:4:5B,=C/B,/A,/G,/ z2 | %89
 (6:4:6G,/A,/B,/G,/F,/G,/(3C,E,C, (6:4:6F,/G,/A,/F,/E,/F,/(3B,,D,B,, | %90
 (6:4:6E,/F,/G,/E,/D,/E,/(3A,,C,A,, (6:4:6D,/E,/F,/D,/C,/D,/ (6:4:6B,,/=C,/D,/B,,/A,,/B,,/ | %91
 (6:4:6G,,/A,,/B,,/A,,/G,,/F,,/ (6:4:6E,,/F,,/G,,/F,,/E,,/D,,/ A,,2- (6:4:6A,,/B,,/C,/D,/E,/^A,,/ | %92
 B,,2- (6:4:6B,,/A,,/B,,/D,/C,/E,/ D,2- (6:4:6D,/E,/D,/=C,/B,,/A,,/ | %93
 (6:4:6G,,/D,/E,/F,/G,/A,/ _B,2- (6:4:6B,/A,/B,/G,/E,/G,/ (6:4:6A,/G,/A,/=F,/D,/F,/ | %94
 (6:4:6G,/=F,/G,/E,/C,/E,/ (6:4:6F,/E,/F,/D,/B,,/D,/ (6:4:6E,/D,/E,/C,/A,,/C,/ (6:4:6D,/B,,/D,/F,/_B,,/D,/ | %95
 A,,4 A,,2 (6:4:6z/ B,,/A,,/G,,/F,,/E,,/ | D,,2 z2 z4 | z2 D,2 A,2 A,,2 | %98
 D,2 (6:4:5z =C/B,/A,/G,/ (3F,A,F, (3D,F,D, | (3A,,D,A,, (3F,,A,,F,, D,,2 D,2 | %100
 (3:2:2G,,2 D, (12:8:5(1:1:3G,/4F,/4G,/-G,G, G,2 (6:4:5z A,,/G,,/F,,/E,,/ | %101
 (3:2:2F,,2 F, (3:2:2F,2 F, F,2 (6:4:5z G,,/F,,/E,,/D,,/ | %102
 (6:4:5E,,B,/A,/G,/F,/(3E,G,E, (3C,E,C, (3A,,C,A,, | (3D,F,D, (3B,,D,B,, (3E,G,E, (3C,E,C, | %104
 (6:4:5F,D,/E,/F,/G,/(6:4:5A,G,/F,/E,/D,/ (6:4:5G,E,/F,/G,/A,/(6:4:5B,A,/G,/F,/E,/ | %105
 (3:2:2A,2 A,, (3:2:2A,,2 A,, A,,2- A,,(3E,/F,/G,/ | (3:2:2A,2 A,, (3:2:2A,,2 A,, A,,2 z2 | %107
 (6:4:5z z/ F,,/G,,/A,,/(3B,,A,,G,, (3:2:2A,,2 G, (3:2:2A,2 A,, | %108
 (3:2:2D,2 A, D2- (6:4:5DE/D/C/B,/(6:4:5^A,B,/A,/^G,/F,/ | %109
 (3:2:2B,2 B,, B,2- (6:4:5B,=C/B,/A,/G,/(6:4:5F,G,/F,/E,/D,/ | %110
 (3:2:2G,2 G,, G,2- (6:4:5G,A,/G,/F,/E,/(6:4:5D,E,/F,/G,/A,/ | %111
 (3B,A,G, (3:2:2A,2 A,, !fermata!D,,4 | z8 |[M:2/2] z DDD G,2 B,2- | B,E,A,G, F,2 D,2 | %115
 z F,B,A, ^G,4 | A,2 C2 z A,DC | B,4 z B,ED | C4 z A,DC | B,4 z E,A,G, | F,E, D,2 z D,G,F, | %121
 E,2 D,C, B,,4 | E,4- E,G,F,E, | ^D,4 E,=D, G,2- | G,G,C,D, E,G, F,2- | F,A,^G,F, E,4- | %126
 E,E,A,G, F,E, D,2 | E,F, G,2- G,G,F,E, | D,2 z2 z4 | z E,A,G, F,A,DC | B,2 z2 z B, C2- | %131
 CA,DC B,2 A,^G, | F,2 E,2- E,2 z2 | z B,B,B, E,2 G,2- | G,C,F,E, ^D,^E,/F,/ =F,2 | %135
 z B,^A, C2 EDC | B,4- B,^G,CB, | A,4- A,F,B,A, | ^G,4- G,F,/G,/ A,2 | ^G,F, G,2 F, z z2 | %140
 z4 z D,G,F, | E,2 z A, D=C B,2- | B,A, G,2 z E,A,G, | F,E,D,F, B,A, G,2- | G,A,B,E A,4 | %145
 G,DDD G,2 B,2- | B,E,A,G, F,4- | F,B,,E,D, C,D, E,2- | E,C,F,E, D, z2 F, | B,A, G,2 z4 | z8 | z8 | %152
 z DDD G,2 B,2- | B,E,A,G, F,G, A,2- | A,D,G,F, E,2 z2 | z8 | z B,B,B, E, z z2 | z DDD ^G,2 B,2- | %158
 B,E,A,G, F,3 A, | D=CB,A, G,4- | G,E,A,G, F,4- | F,B,,E,D, C,B,, A,,2 | z D,A,G, F,4 |] %163
V:3
 D,,2 z2 z4 | x8 | x8 | x8 | x8 | x8 | x8 | x8 | x8 | x8 | x8 | x8 | x8 | x8 | x8 | x8 | %16
 D,,2 z2 z4 | x8 | x8 | x8 | x8 | x8 | x8 | x8 | x8 | x8 | x8 | x8 | x8 | x8 | x8 | x8 | %32
 A,,2 z2 z4 | x8 | x8 | x8 | x8 | x8 | x8 | x8 | x8 | x8 | x8 | x8 | x8 | x8 | x8 | x8 | x8 | x8 | %50
 x8 | x8 | x8 | x8 | x8 | x8 | x8 | x8 | x8 | x8 | x8 | x8 | x8 | x8 | x8 | x8 | x8 | x8 | x8 | %69
 x8 | x8 | x8 | A,,2 z2 z4 | x8 | x8 | x8 | x8 | x8 | x8 | x8 | x8 | x8 | x8 | x8 | x8 | x8 | x8 | %87
 x8 | x8 | x8 | x8 | x8 | x8 | x8 | x8 | x8 | x8 | x8 | x8 | x8 | x8 | x8 | x8 | x8 | x8 | x8 | %106
 x8 | x8 | x8 | x8 | x8 | x8 | x8 |[M:2/2] x8 | x8 | x8 | x8 | x8 | z A,A,A, D,2 F,2- | %119
 F,B,,E,D, C,B,, A,,2 | z A,,D,C, B,,A,, G,,2- | G,,F,,B,,A,, ^G,,4 | A,,2 G,,2 F,,4 | B,,8- | %124
 B,,6 ^A,,2 | B,,2 z2 z D,C,B,, | A,,2 z A,, B,,2 z B,, | E,,2 z E, A,,2 z A,, | D,,2 z2 z4 | x8 | %130
 z B,,E,D, C,E,A,^G, | F,E, D,2- D,C,F,E, | D,2 E,2 A,,2 z F,, | B,, z z2 z D,C,B,, | %134
 ^A,,2 z A,, =A,,2 z ^G,, | C,2 z E, F,,F,^G,^A, | B,A,^G,F, ^E,4 | z F,F,F, B,,2 D,2- | %138
 D,^G,,C,B,, A,,3 B,, | C,4 F,,A,A,A, | D,2 F,2- F,B,,E,D, | C,B,, A,,2 z4 | %142
 z B,,E,D, =C,B,, A,,2- | A,,2 B,,2- B,,D,G,F, | E,F,G,E, =C,A,,D,C, | B,,D,G,F, E,4- | %146
 E,D,C,A,, D,=C,B,,A,, | G,,2 ^G,,2 A,,4 | ^A,,4 B,,4- | B,,B,,E,D, C,E,A,G, | F,A,DC B,A,G,F, | %151
 E,D,C,B,, A,,G,,F,,E,, | D,, z z D, E,2 z E, | A,G,F,E, D,E, F,2- | F,B,,E,D, C,B,, A,,2- | %155
 A,,A,A,A, ^D,E, =F,2- | F,B,,E,D, C,A,,D,C, | B,, z z B, B,B, E,2 | G,3 C, F,E, D,2- | %159
 D,2 z D, G,F,E,D, | C,2 z A,, D,=C,B,,A,, | G,,4 A,,4- | A,,4 !fermata!D,,4 |] %163
V:4
 x8 | z2 f2 feed | (6:4:6d/[I:staff +1]D,/E,/F,/G,/A,/(3A,F,A,[I:staff -1] (3DA,D (3FDF | %3
 A2 A2 AGGF | (6:4:5FF/E/D/C/(3B,DB, ^G, z z2 | (6:4:5z E/D/C/B,/(3A,CA, F, z z2 | %6
 z2 (3:2:2F2 F F2 z2 | x8 | %8
 (6:4:5z[I:staff +1] A,/B,/C/D/(6:4:5ED/C/B,/A,/[I:staff -1] (6:4:5F[I:staff +1]B,/C/D/E/(6:4:5FE/D/C/B,/ | %9
[I:staff -1] (6:4:5^GE/F/G/A/(3BGB (3dBd (3^gdg | c2 A2 F2 ^D2 | (3:2:2E2 D (3:2:2C2 A A2 ^G2 | %12
 A z z2 z2 (3z ^G^E | C z z2 z2 (3z EC | A, z z2 z4 | (3:2:2z2 D (3:2:2C2 B, C4 | x8 | z2 f2 feed | %18
 (6:4:6d/[I:staff +1]D,/E,/F,/G,/A,/(3A,F,A,[I:staff -1] (3DA,D (3FDF | A2 A2 AGGF | %20
 (6:4:5FF/E/D/C/(3B,DB, ^G, z z2 | (6:4:5z E/D/C/B,/(3A,CA, F, z z2 | z2 (3:2:2F2 F F2 z2 | x8 | %24
 (6:4:5z[I:staff +1] A,/B,/C/D/(6:4:5ED/C/B,/A,/[I:staff -1] (6:4:5F[I:staff +1]B,/C/D/E/(6:4:5FE/D/C/B,/ | %25
[I:staff -1] (6:4:5^GE/F/G/A/(3BGB (3dBd (3^gdg | c2 A2 F2 ^D2 | (3:2:2E2 D (3:2:2C2 A A2 ^G2 | %28
 A z z2 z2 (3z ^G^E | C z z2 z2 (3z EC | A, z z2 z4 | (3:2:2z2 D (3:2:2C2 B, C4 | x8 | %33
[I:staff +1] A,2[I:staff -1] [CA]2 [CA][DB][DB][Ec] | [Ec] z z2 z4 | z2[I:staff +1] E,2 E,D,D,E, | %36
 (6:4:5E,A,/B,/C/D/[I:staff -1](3ECE =G z z2 | (6:4:5z D/E/F/G/(3AFA =c z z2 | %38
 (3z z A (12:8:9(1:1:4A/4G/4A/4G/4(1:1:4A/4G/4A/4G/4F E2- (3:2:2E2 G | %39
 F2- (3:2:2F2 A G2- (3:2:2G2 B | ^A z z2 c z z2 | %41
 (6:4:5z =c/B/A/^G/(3AcG (6:4:5Ac/B/A/G/(6:4:5AB/A/=G/F/ | G z z2 z4 | %43
 z4 (3:2:4z z (2:2:2z/ =G/ F2- | (6:4:4F/ z/ z z z2 z4 | z2 ^A2 E2 C2- | %46
 (6:4:5CB,/C/D/E/(3FDF (3BFB (3dBd | (3c^Ac B2 B2 A2 | B z z2 z2 (3z AF | %49
 (3:2:2D G2- (6:4:6G/A/G/F/E/D/ (3:2:2C F2- (6:4:6F/G/F/E/D/C/ | %50
 (3:2:2B, E2- (6:4:6E/F/E/D/C/B,/ (3:2:2A, D2- D2- | (6:4:5DG/F/E/E/(3GEF- (3FDE G2- | %52
 (3GEF B2- (3BAG A2- | (3AGF (3GEF E2 (6:4:6=F/E/F/D/A/F/- | (3FEG (3GCD- (3DCE- (3EA,D- | %55
 [B,D] z z2 (6:4:6z/ A,/G,/^F,/[I:staff +1]E,/D,/(3C,[I:staff -1] z z | %56
 (6:4:5z[I:staff +1] D,/E,/F,/G,/(3A,F,A,[I:staff -1] (3DA,D (3FDF | A2 A2 AGGF | F z z2 z4 | %59
 z2 A2 AGGF | G z z2 (6:4:6z/ A,/B,/C/D/E/(3ECE | A z z2 (6:4:6z/ G,/A,/B,/C/D/(3DB,D | %62
 (3:2:2G2 D (3:2:2G2 G G2 (6:4:5z A/G/F/E/ | %63
 (6:4:5FD/E/F/G/(6:4:5AG/F/E/D/ (6:4:5GE/F/G/A/(6:4:5BA/G/F/E/ | (3:2:2A2 G F2- F2 (3:2:2E2 D | %65
 (6:4:5CA,/B,/C/D/(3ECE (3GEG (3cGc | F2 D2 B,2 ^G,2 | %67
 (3:2:2A,2 G, (3:2:2F,2 E (3:2:2C2 D (6:4:4DC/B,/C | D/ z/ z z2 z2 (3z c^A | %69
 (6:4:5F^G/^A/B/c/ d/ z/ z z2 (3z =AF | (6:4:5DE/F/G/A/ B/ z/ z z z/ C/ (3:2:2D2 F | %71
 (3GAB (3:2:2F2 G- (3GAF- F2 | x8 |[I:staff +1] A,2[I:staff -1] [CA]2 [CA][DB][DB][Ec] | %74
 [Ec] z z2 z4 | z2[I:staff +1] E,2 E,D,D,E, | (6:4:5E,A,/B,/C/D/[I:staff -1](3ECE =G z z2 | %77
 (6:4:5z D/E/F/G/(3AFA =c z z2 | %78
 (3z z A (12:8:9(1:1:4A/4G/4A/4G/4(1:1:4A/4G/4A/4G/4F E2- (3:2:2E2 G | %79
 F2- (3:2:2F2 A G2- (3:2:2G2 B | ^A z z2 c z z2 | %81
 (6:4:5z =c/B/A/^G/(3AcG (6:4:5Ac/B/A/G/(6:4:5AB/A/=G/F/ | G z z2 z4 | %83
 z4 (3:2:4z z (2:2:2z/ =G/ F2- | (6:4:4F/ z/ z z z2 z4 | z2 ^A2 E2 C2- | %86
 (6:4:5CB,/C/D/E/(3FDF (3BFB (3dBd | (3c^Ac B2 B2 A2 | B z z2 z2 (3z AF | %89
 (3:2:2D G2- (6:4:6G/A/G/F/E/D/ (3:2:2C F2- (6:4:6F/G/F/E/D/C/ | %90
 (3:2:2B, E2- (6:4:6E/F/E/D/C/B,/ (3:2:2A, D2- D2- | (6:4:5DG/F/E/E/(3GEF- (3FDE G2- | %92
 (3GEF B2- (3BAG A2- | (3AGF (3GEF E2 (6:4:6=F/E/F/D/A/F/- | (3FEG (3GCD- (3DCE- (3EA,D- | %95
 [B,D] z z2 (6:4:6z/ A,/G,/^F,/[I:staff +1]E,/D,/(3C,[I:staff -1] z z | %96
 (6:4:5z[I:staff +1] D,/E,/F,/G,/(3A,F,A,[I:staff -1] (3DA,D (3FDF | A2 A2 AGGF | F z z2 z4 | %99
 z2 A2 AGGF | G z z2 (6:4:6z/ A,/B,/C/D/E/(3ECE | A z z2 (6:4:6z/ G,/A,/B,/C/D/(3DB,D | %102
 (3:2:2G2 D (3:2:2G2 G G2 (6:4:5z A/G/F/E/ | %103
 (6:4:5FD/E/F/G/(6:4:5AG/F/E/D/ (6:4:5GE/F/G/A/(6:4:5BA/G/F/E/ | (3:2:2A2 G F2- F2 (3:2:2E2 D | %105
 (6:4:5CA,/B,/C/D/(3ECE (3GEG (3cGc | F2 D2 B,2 ^G,2 | %107
 (3:2:2A,2 G, (3:2:2F,2 E (3:2:2C2 D (6:4:4DC/B,/C | D/ z/ z z2 z2 (3z c^A | %109
 (6:4:5F^G/^A/B/c/ d/ z/ z z2 (3z =AF | (6:4:5DE/F/G/A/ B/ z/ z z z/ C/ (3:2:2D2 F | %111
 (3GAB (3:2:2F2 G- (3GAF- !fermata!F2 | x8 |[M:2/2] x8 | z4 z AAA | D2 F2- FB,ED | CEAG F2 A2- | %117
 ADGF EF G2- | G2 FE D2 z2 | z2 z B, ED C2- | C2 z A, DC B,2 | A,2[I:staff +1] ^G,F, E,4 | %122
[I:staff -1] z EEE A,2 =C2- | CF,B,A,[I:staff +1] G,[I:staff -1]B,ED | CB,^A,B, CEDC | B,2 z2 z4 | %126
 B,AAA D2 F2- | FB,ED C4 | z A,D=C B,DGF | ED C2 DE F2- | F2 ^G4 AE | A^G F2 E2 DC | B,C D2- DCFE | %133
 ^D2 z2 z B,E=D | C z z2 z BBB | E2 =G2- GCFE | DFBA ^G4- | GCFE D3 C | B,4 B,A,/B,/ CD | %139
 C3 B, A, z z2 | z AAA D z z2 | z EAG F2 z D | GF E2 z2 z F | AGFD GFED | =C2 B,2 E2 D2- | %145
 D z z B BB E2 | G3 C FE D2- | D2 z z ED C2- | C2 z C FE D2- | D2 z B, ED C2- | CCFE DFBA | %151
 GBed c4 | x8 | c2 z E AGFE | D2 CD EDCE- | E D2 C =CB,A,C | DE/=F/ E2- E z z f | ff B2 d3 ^G | %158
 cB A2- AGFE | F4 z DGF | ED C2 z A,D=C | B,3 B, EDCE- | E D2 C[I:staff +1] A,4 |] %163
V:5
 x8 | x8 | x8 | x8 | x8 | x8 | x8 | x8 | x8 | x8 | x8 | x8 | x8 | x8 | x8 | x8 | x8 | x8 | x8 | %19
 x8 | x8 | x8 | x8 | x8 | x8 | x8 | x8 | x8 | x8 | x8 | x8 | x8 | x8 | x8 | x8 | x8 | x8 | x8 | %38
 x8 | x8 | x8 | x8 | x8 | z6 (3:2:2z c2- | (6:4:4c/ z/ z z z2 z4 | x8 | x8 | x8 | x8 | x8 | x8 | %51
 x8 | x8 | x8 | x8 | x8 | x8 | x8 | x8 | x8 | x8 | x8 | x8 | x8 | x8 | x8 | x8 | x8 | x8 | x8 | %70
 x8 | z2 (3z z E (3:2:2z A2 A2 | x8 | x8 | x8 | x8 | x8 | x8 | x8 | x8 | x8 | x8 | x8 | %83
 z6 (3:2:2z c2- | (6:4:4c/ z/ z z z2 z4 | x8 | x8 | x8 | x8 | x8 | x8 | x8 | x8 | x8 | x8 | x8 | %96
 x8 | x8 | x8 | x8 | x8 | x8 | x8 | x8 | x8 | x8 | x8 | x8 | x8 | x8 | x8 | %111
 z2 (3z z E (3:2:2z A2- !fermata!A2 | x8 |[M:2/2] x8 | x8 | x8 | x8 | x8 | x8 | x8 | x8 | x8 | x8 | %123
 x8 | x8 | x8 | x8 | x8 | x8 | x8 | x8 | x8 | x8 | x8 | x8 | x8 | x8 | x8 | x8 | x8 | x8 | x8 | %142
 x8 | x8 | x8 | x8 | x8 | x8 | x8 | x8 | x8 | x8 | x8 | x8 | x8 | x8 | x8 | x8 | x8 | x8 | x8 | %161
 x8 | x8 |] %163
V:6
 x8 | x8 | x8 | x8 | x8 | x8 | x8 | x8 | x8 | x8 | x8 | x8 | x8 | x8 | x8 | x8 | x8 | x8 | x8 | %19
 x8 | x8 | x8 | x8 | x8 | x8 | x8 | x8 | x8 | x8 | x8 | x8 | x8 | x8 | x8 | x8 | x8 | x8 | x8 | %38
 x8 | x8 | x8 | x8 | x8 | x8 | x8 | x8 | x8 | x8 | x8 | x8 | x8 | x8 | x8 | x8 | x8 | x8 | x8 | %57
 x8 | x8 | x8 | x8 | x8 | x8 | x8 | x8 | x8 | x8 | x8 | x8 | x8 | x8 | z6 D2 | x8 | x8 | x8 | x8 | %76
 x8 | x8 | x8 | x8 | x8 | x8 | x8 | x8 | x8 | x8 | x8 | x8 | x8 | x8 | x8 | x8 | x8 | x8 | x8 | %95
 x8 | x8 | x8 | x8 | x8 | x8 | x8 | x8 | x8 | x8 | x8 | x8 | x8 | x8 | x8 | x8 | z6 !fermata!D2 | %112
 x8 |[M:2/2] x8 | x8 | x8 | x8 | x8 | x8 | x8 | x8 | x8 | x8 | x8 | x8 | x8 | x8 | x8 | x8 | x8 | %130
 x8 | x8 | x8 | x8 | x8 | x8 | x8 | x8 | x8 | x8 | x8 | x8 | x8 | x8 | x8 | x8 | x8 | x8 | x8 | %149
 x8 | x8 | x8 | x8 | x8 | x8 | x8 | x8 | x8 | x8 | x8 | x8 | x8 | x8 |] %163

